Sources/FrostedUI/Resources/Icons.xcassets/dollarSignSlashed32.imageset/dollar-sign-slashed-32.svg

<svg width="32" height="32" viewBox="0 0 32 32" fill="none" xmlns="http://www.w3.org/2000/svg" data-fui-icon="true">
  <path
    d="M16.0233 0.000976562C16.4374 0.0011699 16.7733 0.336882 16.7733 0.750977V2.65039C22.4664 2.94352 24.5965 6.56486 24.9882 8.48828C25.0705 8.89385 24.8086 9.29017 24.4032 9.37305C23.9975 9.45562 23.6013 9.1937 23.5184 8.78809C23.252 7.47872 21.6624 4.43568 16.7733 4.15234V15.3828C18.6174 15.7407 20.5482 16.1596 22.0555 17.0264C22.9114 17.5186 23.6595 18.1687 24.1893 19.0537C24.72 19.9404 25.0038 21.0153 25.0038 22.3105C25.0035 25.3868 22.2622 29.0401 16.7733 29.3457V31.25C16.773 31.6639 16.4372 31.9998 16.0233 32C15.6093 32 15.2736 31.664 15.2733 31.25V29.3467C12.5722 29.2003 10.6825 28.2722 9.38464 27.1045C7.98516 25.8451 7.32492 24.3578 7.03503 23.4297C6.91158 23.0343 7.1319 22.6137 7.52722 22.4902C7.92248 22.367 8.34322 22.5872 8.46667 22.9824C8.70452 23.7439 9.24867 24.9643 10.3876 25.9893C11.4056 26.9052 12.9422 27.7013 15.2733 27.8438V16.6152C13.4293 16.2576 11.4984 15.8412 9.99109 14.9746C9.13527 14.4824 8.38718 13.8321 7.8573 12.9473C7.32652 12.0607 7.04392 10.9856 7.04382 9.69043C7.04382 6.61437 9.78742 2.95977 15.2733 2.65234V0.750977C15.2733 0.336763 15.6091 0.000976562 16.0233 0.000976562ZM16.7733 27.8438C21.5219 27.5489 23.5035 24.4611 23.5038 22.3105C23.5038 21.2399 23.2714 20.441 22.9022 19.8242C22.5321 19.206 21.9943 18.7212 21.3075 18.3262C20.0989 17.6312 18.5173 17.2579 16.7733 16.9121V27.8438ZM15.2733 4.1543C10.5266 4.45093 8.54382 7.54111 8.54382 9.69043C8.54392 10.7609 8.77521 11.5601 9.14441 12.1768C9.51458 12.7948 10.0524 13.2789 10.7391 13.6738C11.9478 14.3687 13.5292 14.7412 15.2733 15.0869V4.1543Z"
    fill="currentColor"
  />
</svg>

<svg xmlns="http://www.w3.org/2000/svg" width="32" height="32" fill="none" data-fui-icon="true" viewBox="0 0 32 32"><path fill="currentColor" d="M16.023.001a.75.75 0 0 1 .75.75v1.9c5.693.293 7.823 3.914 8.215 5.837a.75.75 0 0 1-1.47.3c-.266-1.31-1.856-4.352-6.745-4.636v11.23c1.844.359 3.775.778 5.282 1.644.856.493 1.605 1.143 2.134 2.028.531.886.815 1.961.815 3.257 0 3.076-2.742 6.73-8.23 7.035v1.904a.75.75 0 0 1-1.5 0v-1.903c-2.702-.147-4.591-1.075-5.89-2.242a8.34 8.34 0 0 1-2.349-3.675.75.75 0 0 1 1.432-.448 6.84 6.84 0 0 0 1.92 3.007c1.019.916 2.555 1.712 4.886 1.855V16.615c-1.844-.357-3.775-.774-5.282-1.64-.856-.493-1.604-1.143-2.134-2.028-.53-.886-.813-1.961-.813-3.257 0-3.076 2.743-6.73 8.23-7.038V.751a.75.75 0 0 1 .75-.75m.75 27.843c4.749-.295 6.73-3.383 6.73-5.533 0-1.071-.232-1.87-.6-2.487-.37-.618-.909-1.103-1.595-1.498-1.21-.695-2.79-1.068-4.535-1.414zm-1.5-23.69c-4.746.297-6.73 3.387-6.73 5.536 0 1.07.232 1.87.601 2.487.37.618.908 1.102 1.595 1.497 1.209.695 2.79 1.067 4.534 1.413z"/></svg>
